X: 38205
T: Spring Will Sometime Come
R: reel
M: 4/4
K: Bminor
"Bm"fB~B2 fB"G"gB|"Bm"fB~B2 "A"edce|"Bm"fB~B2 fB"G"gB|"Bm"fB~B2 "A"edcA|
"Bm"fB~B2 fB"G"gB|"Bm"fB~B2 "A"edcd|"Bm"fe"A"de "G"gf"F#m"ef|"A"fage fdec|
"D"~d2de "G"dBGB|"A"dega eA~A2|"D"dedB "G"GBdB|"A"Acec "Bm/G"BA"A"Bc|
"D"dedB "G"GBdB|"A"Acec ~a2^ga|"Bm"fe"A"de "G"gf"F#m"ef|"A"fage fded|

